X:1
T: Tulloch Gorm
T: 32S 3C x 8 (RSCDS Book 8)
P: Tullochgorum
C: trad., aka The Corn Bunting, The Blue Hill
C: from J. Scott Skinner "The Scottish Violinist"
C: arr. T. Traub 6-26-03
M: 4/4
L: 1/8
%
K: G
|: c|"G" B<Gd>G "F"c=FA>c|"G"B<Gd>G B>c d<g|"G"B<Gd>G "F"c>=FA>c|"G"B<Gd>G "D"c2 BA :|
"G"G<gd>e "F"=f>F A2|"G"G>g d<g B<gd<g|"G"G<gd>g "F"=f>F A2|"G"G>g d<g "D7"c2 BA|
"G"G<gd>e "F"=f>F A2|"G"Ggde "F"=fcfg|"F"a/g/=f/e/ fd cFAa|"G"gdgb "C"eg "G"dg |]
